X:1
T:Title
%%score 1 { 2 | 3 }
L:1/8
Q:1/4=107
M:3/4
K:F
V:1 treble nm="Grand Piano, Soprano"
V:2 bass nm="Choir Pad, Bass"
V:3 bass 
V:1
 [FA]3 [F_A] [F=A]2 | [EG]3 [_E^F] [=EG]2 | [DF]2 [DF]2 [DG]2 | [CE]6 | [CF]2 [CF]2 [EG]2 | %5
w: By~Frederick~Charles~Maker,~1894 * *|||||
 [FA]3 [FA] G2 | [FA]2 [FA]2 [F=B]2 | [Ec]6 | [Fc]2 [Ff]2 [Ge]2 | [Ge]3 [Fd] [Fd]2 | %10
w: |||||
 [EG]2 [EA]2 [EB]2 | [Fc]3 C C2 | [B,D]2 [DG]2 E2 | F6- | F2 z2 z2 |] %15
w: |||||
V:2
 C3 =B, C2 | B,3 A, B,2 | A,2 A,2 B,2 | G,6 | A,2[K:treble] C2 C2 | C3 C C2 | C2 D2 D2 | C4 B,2 | %8
 A,2 C2 ^C2 | ^C3 D D2 | C2 C2 C2 | C3[K:bass] F, F,2 | F,2 G,2 B,2 | A,6- | A,2 z2 z2 |] %15
V:3
 F,3 F, F,2 | C,3 C, C,2 | D,2 D,2 B,,2 | C,6 | F,2 A,2 G,2 | F,3 F, E,2 | F,2 D,2 G,2 | C,6 | %8
 F,2 A,2 A,2 | B,3 B, B,2 | B,2 B,2 B,2 | A,3 A,, A,,2 | B,,2 G,,2 C,2 | F,,6- | F,,2 z2 z2 |] %15

